X:50
%%NRChange 2025-10-24
T:Mominette
C:Maxou Heintzen
M:4/4
L:1/8
%Q:1/4=160
K:Em
"Em"E2GB E2GB | "Am"c2BA "Em"B3B | "Am"cded cBAG | "B7"F2GA B2 B2 |
"Em"E2GB E2GB | "Am"c2BA "Em"B3B | "Am"cded cBAG | "B7"F2gf "Em"e4 :|
"C"e2fg f2e2 | "D"dedc "G"B3B | "Am"cded cBAG | "B7"F2GA B2 B2 |
"C"e2fg f2e2 | "D"dedc "G"B3B | "Am"cded cBAG | "B7"F2gf "Em"e4 :|

